X:1
T:Bellenden, 87.87 D
T:Bellenden, 87.87 D
T:Songs for Social & Public Worship, 1863
T:Public Domain Courtesy of the Cyber Hymnal™
C:Songs for Social & Public Worship, 1863
Z:Public Domain
Z:Courtesy of the Cyber Hymnal™
%%score ( 1 2 ) ( 3 4 )
L:1/8
Q:1/4=108
M:4/4
K:Bb
V:1 treble 
V:2 treble 
V:3 bass 
V:4 bass 
V:1
 [DF]2 [DF]2 [DF]2 [FB]2 | [Fc]2 (cB) (dB) [EG]2 | [FB]2 [EG]2 [DF]2 [DB]2 | [Bd]2 [Ac]2 [FB]4 | %4
 [DF]2 [DF]2 [DF]2 [FB]2 | [Fc]2 (cB) (dB) [EG]2 | [FB]2 [EG]2 [DF]2 [DB]2 | [Bd]2 [Ac]2 [FB]4 | %8
 ([DB][Ec]) ([Bd][ce]) [df]2 [df]2 | ([Bd][Ac]) [Af]2 [Bd][Ac] [GB]2 | %10
 ([DB][Ec])[Bd][Be] [df]2 [df]2 | [Bd]2 [FB]2 [Fc]4 | [DF]2 [DF]2 [DF]2 [FB]2 | %13
 [Fc]2 (cB) (dB) [EG]2 | [FB]2 [EG]2 [DF]2 [DB]2 | [Bd]2 [Ac]2 [FB]4 |] %16
V:2
 x8 | x2 F2 F2 x2 | x8 | x8 | x8 | x2 F2 F2 x2 | x8 | x8 | x8 | x8 | x8 | x8 | x8 | x2 F2 F2 x2 | %14
 x8 | x8 |] %16
V:3
 [B,,B,]2 [B,,B,]2 [B,,B,]2 [D,D]2 | [F,C]2 [F,C]2 [B,,D]2 [B,,B,]2 | %2
 [B,,D]2 [E,B,]2 [F,B,]2 [F,B,]2 | [G,B,]2 [F,E]2 [B,,D]4 | [B,,B,]2 [B,,B,]2 [B,,B,]2 [D,D]2 | %5
 [F,C]2 [F,C]2 [B,,D]2 [B,,B,]2 | [B,,D]2 [E,B,]2 [F,B,]2 [F,B,]2 | [G,B,]2 [F,E]2 [B,,D]4 | %8
 [B,,F,]2 [B,,F,]2 [F,B,]2 [F,B,]2 | F,2 F,2 B,2 [E,B,]2 | F,2 [B,,F,]2 [F,B,]2 B,2 | %11
 [G,B,]2 [B,,B,]2 [F,A,]4 | [B,,B,]2 [B,,B,]2 [B,,B,]2 [D,D]2 | [F,C]2 [F,C]2 [B,,D]2 [B,,B,]2 | %14
 [B,,D]2 [E,B,]2 [F,B,]2 [F,B,]2 | [G,B,]2 [F,E]2 [B,,D]4 |] %16
V:4
 x8 | x8 | x8 | x8 | x8 | x8 | x8 | x8 | x8 | F,2 F,2 (G,F,) x2 | (D,C,) x3 B,2 x | x8 | x8 | x8 | %14
 x8 | x8 |] %16

